packages/assets/static/images/icons/signature.svg

<svg width="24" height="24" viewBox="0 0 24 24" xmlns="http://www.w3.org/2000/svg">
<path d="M21.7541 15.7427H5.99099C6.24037 15.2514 6.49068 14.7461 6.74099 14.2324C8.14724 14.3871 9.79537 13.4092 11.6779 11.313C12.1466 12.5749 13.0326 14.2127 14.5447 14.2427C15.3941 14.2596 16.2426 13.7552 17.1154 12.708C17.7519 13.4692 19.0635 14.2427 21.7541 14.2427C21.953 14.2427 22.1438 14.1637 22.2844 14.023C22.4251 13.8824 22.5041 13.6916 22.5041 13.4927C22.5041 13.2938 22.4251 13.103 22.2844 12.9623C22.1438 12.8217 21.953 12.7427 21.7541 12.7427C18.9013 12.7427 18.0576 11.763 18.0041 11.2324C18.0126 11.0714 17.9667 10.9123 17.8739 10.7805C17.781 10.6488 17.6466 10.552 17.4922 10.5058C17.3318 10.4576 17.16 10.4635 17.0033 10.5227C16.8466 10.5818 16.7137 10.6908 16.6251 10.833C15.4935 12.5711 14.8082 12.7483 14.5701 12.7427C13.7957 12.7277 13.0082 10.9127 12.7382 9.60955C12.7094 9.46998 12.6414 9.34151 12.5422 9.23918C12.443 9.13685 12.3167 9.06489 12.1781 9.03174C12.0395 8.99859 11.8943 9.00562 11.7596 9.05199C11.6248 9.09837 11.5061 9.18218 11.4172 9.29361C9.52349 11.6692 8.25412 12.4689 7.4638 12.6761C8.25974 10.9071 8.85412 9.35361 9.23474 8.0458C9.87412 5.8483 9.92099 4.31174 9.3763 3.34893C9.09505 2.84455 8.50068 2.24268 7.30818 2.24268C5.80255 2.24268 4.61474 3.6658 4.04849 6.14736C3.71193 7.62018 3.65662 9.2608 3.89662 10.6474C4.13662 12.0339 4.63443 13.0427 5.35818 13.6417C5.00849 14.3655 4.65224 15.0724 4.30537 15.7427H2.25412C2.0552 15.7427 1.86444 15.8217 1.72379 15.9623C1.58313 16.103 1.50412 16.2938 1.50412 16.4927C1.50412 16.6916 1.58313 16.8824 1.72379 17.023C1.86444 17.1637 2.0552 17.2427 2.25412 17.2427H3.5113C2.45005 19.2114 1.62505 20.5839 1.61193 20.6064C1.55846 20.6909 1.52241 20.7852 1.5059 20.8838C1.4894 20.9823 1.49276 21.0832 1.5158 21.1805C1.53885 21.2778 1.5811 21.3694 1.64008 21.4502C1.69906 21.5309 1.77358 21.599 1.85925 21.6504C1.94493 21.7019 2.04003 21.7358 2.13897 21.75C2.23792 21.7642 2.3387 21.7585 2.43541 21.7332C2.53211 21.7079 2.62278 21.6635 2.70209 21.6027C2.78141 21.5419 2.84775 21.4658 2.89724 21.3789C2.9113 21.3545 3.9538 19.6174 5.21287 17.2427H21.7541C21.953 17.2427 22.1438 17.1637 22.2844 17.023C22.4251 16.8824 22.5041 16.6916 22.5041 16.4927C22.5041 16.2938 22.4251 16.103 22.2844 15.9623C22.1438 15.8217 21.953 15.7427 21.7541 15.7427ZM5.51099 6.48111C5.88412 4.8433 6.60693 3.74268 7.30818 3.74268C7.80787 3.74268 7.9738 3.91705 8.07037 4.08674C8.35162 4.58643 8.68162 6.35455 6.03974 12.1858C5.26537 11.1283 5.00193 8.71143 5.51099 6.48111Z"/>
</svg>

<svg viewBox="0 0 24 24" xmlns="http://www.w3.org/2000/svg" aria-hidden="true" fill="currentColor"><path d="M21.754 15.743H5.991q.375-.74.75-1.51c1.406.154 3.054-.824 4.937-2.92.469 1.262 1.355 2.9 2.867 2.93.85.017 1.698-.488 2.57-1.535.637.761 1.949 1.535 4.64 1.535a.75.75 0 1 0 0-1.5c-2.854 0-3.697-.98-3.75-1.51a.72.72 0 0 0-.513-.727.76.76 0 0 0-.867.327c-1.132 1.738-1.817 1.915-2.055 1.91-.774-.015-1.562-1.83-1.832-3.133a.75.75 0 0 0-1.32-.316c-1.895 2.375-3.164 3.175-3.954 3.382.796-1.769 1.39-3.322 1.77-4.63.64-2.198.687-3.734.142-4.697-.28-.504-.875-1.106-2.068-1.106-1.505 0-2.693 1.423-3.26 3.904-.336 1.473-.391 3.114-.151 4.5s.737 2.396 1.461 2.995c-.35.724-.706 1.43-1.053 2.1h-2.05a.75.75 0 1 0 0 1.5H3.51a88 88 0 0 1-1.9 3.364.75.75 0 1 0 1.286.773c.014-.024 1.057-1.762 2.316-4.136h16.541a.75.75 0 1 0 0-1.5M5.511 6.48c.373-1.638 1.096-2.738 1.797-2.738.5 0 .666.174.762.344.282.5.612 2.268-2.03 8.099-.775-1.058-1.038-3.475-.529-5.705"/></svg>
